resources/color_luts/Filter 20.cube
TITLE "Generate by Resolve"
LUT_3D_SIZE 33
0.0353250000 0.0353250000 0.0353250000
0.0362100000 0.0322880000 0.0384070000
0.0353550000 0.0308690000 0.0400850000
0.0359810000 0.0311440000 0.0407260000
0.0377810000 0.0316470000 0.0411080000
0.0358740000 0.0322730000 0.0411840000
0.0393530000 0.0331120000 0.0411540000
0.0549020000 0.0343330000 0.0412600000
0.0676740000 0.0365760000 0.0420840000
0.0798810000 0.0396120000 0.0433810000
0.1033190000 0.0419010000 0.0438540000
0.1377280000 0.0425880000 0.0423740000
0.1720300000 0.0434120000 0.0390020000
0.2059360000 0.0423440000 0.0342570000
0.2420230000 0.0346990000 0.0280160000
0.2806290000 0.0103460000 0.0097660000
0.3185630000 0.0000000000 0.0000000000
0.3539330000 0.0000000000 0.0000000000
0.3860840000 0.0000000000 0.0000000000
0.4173040000 0.0000000000 0.0000000000
0.4469980000 0.0000000000 0.0000000000
0.4732430000 0.0000000000 0.0000000000
0.4958420000 0.0000000000 0.0000000000
0.5165480000 0.0000000000 0.0000000000
0.5347070000 0.0000000000 0.0000000000
0.5501790000 0.0000000000 0.0000000000
0.5630270000 0.0000000000 0.0000000000
0.5736170000 0.0000000000 0.0000000000
0.5828180000 0.0000000000 0.0000000000
0.5907990000 0.0000000000 0.0000000000
0.5968720000 0.0000000000 0.0000000000
0.6021520000 0.0000000000 0.0000000000
0.6076140000 0.0000000000 0.0000000000
0.0374460000 0.0350040000 0.0386510000
0.0374000000 0.0352640000 0.0396890000
0.0369120000 0.0346070000 0.0420690000
0.0377810000 0.0347750000 0.0430760000
0.0397500000 0.0352330000 0.0436410000
0.0375370000 0.0357980000 0.0437780000
0.0411380000 0.0366670000 0.0436710000
0.0570690000 0.0381480000 0.0435950000
0.0704200000 0.0410010000 0.0440680000
0.0824290000 0.0449070000 0.0448620000
0.1073930000 0.0481570000 0.0448310000
0.1421230000 0.0495460000 0.0429850000
0.1773710000 0.0509960000 0.0394450000
0.2124820000 0.0506600000 0.0345770000
0.2495460000 0.0439920000 0.0280160000
0.2889910000 0.0238960000 0.0085910000
0.3275350000 0.0000000000 0.0000000000
0.3631650000 0.0000000000 0.0000000000
0.3957730000 0.0000000000 0.0000000000
0.4274510000 0.0000000000 0.0000000000
0.4575420000 0.0000000000 0.0000000000
0.4842760000 0.0000000000 0.0000000000
0.5073320000 0.0000000000 0.0000000000
0.5280080000 0.0000000000 0.0000000000
0.5464870000 0.0000000000 0.0000000000
0.5619900000 0.0000000000 0.0000000000
0.5746240000 0.0000000000 0.0000000000
0.5851990000 0.0000000000 0.0000000000
0.5943080000 0.0000000000 0.0000000000
0.6020600000 0.0000000000 0.0000000000
0.6083770000 0.0000000000 0.0000000000
0.6139010000 0.0000000000 0.0000000000
0.6194710000 0.0000000000 0.0000000000
0.0394450000 0.0373390000 0.0405580000
0.0392770000 0.0372930000 0.0421910000
0.0387430000 0.0371860000 0.0439000000
0.0398410000 0.0372780000 0.0453190000
0.0419780000 0.0376900000 0.0461130000
0.0394450000 0.0382090000 0.0462810000
0.0430000000 0.0390940000 0.0460820000
0.0590980000 0.0408030000 0.0458230000
0.0731980000 0.0443120000 0.0459300000
0.0849320000 0.0489200000 0.0462040000
0.1103070000 0.0519870000 0.0456700000
0.1460290000 0.0531930000 0.0434880000
0.1825740000 0.0542000000 0.0398410000
0.2188450000 0.0543370000 0.0349130000
0.2567480000 0.0500040000 0.0281220000
0.2964220000 0.0307160000 0.0078280000
0.3357440000 0.0015720000 0.0000000000
0.3719840000 0.0000000000 0.0000000000
0.4050050000 0.0000000000 0.0000000000
0.4370950000 0.0000000000 0.0000000000
0.4676280000 0.0000000000 0.0000000000
0.4945750000 0.0000000000 0.0000000000
0.5178300000 0.0000000000 0.0000000000
0.5389030000 0.0000000000 0.0000000000
0.5573970000 0.0000000000 0.0000000000
0.5730220000 0.0000000000 0.0000000000
0.5856110000 0.0000000000 0.0000000000
0.5960020000 0.0000000000 0.0000000000
0.6048980000 0.0000000000 0.0000000000
0.6128480000 0.0000000000 0.0000000000
0.6192260000 0.0000000000 0.0000000000
0.6247500000 0.0000000000 0.0000000000
0.6304110000 0.0000000000 0.0000000000
0.0396580000 0.0458530000 0.0422980000
0.0396890000 0.0454870000 0.0442510000
0.0393380000 0.0450600000 0.0462810000
0.0407110000 0.0449230000 0.0479900000
0.0430910000 0.0452580000 0.0489660000
0.0403300000 0.0457620000 0.0492100000
0.0438090000 0.0468450000 0.0490120000
0.0604870000 0.0486760000 0.0485690000
0.0754710000 0.0514080000 0.0483410000
0.0876780000 0.0549630000 0.0481120000
0.1135880000 0.0575270000 0.0470280000
0.1505300000 0.0592050000 0.0443880000
0.1885250000 0.0609750000 0.0404060000
0.2258950000 0.0617380000 0.0351260000
0.2641950000 0.0589300000 0.0277710000
0.3045090000 0.0487070000 0.0052190000
0.3452810000 0.0144960000 0.0000000000
0.3822080000 0.0000000000 0.0000000000
0.4155340000 0.0000000000 0.0000000000
0.4480510000 0.0000000000 0.0000000000
0.4789960000 0.0000000000 0.0000000000
0.5063710000 0.0000000000 0.0000000000
0.5299460000 0.0000000000 0.0000000000
0.5510030000 0.0000000000 0.0000000000
0.5697110000 0.0000000000 0.0000000000
0.5853360000 0.0000000000 0.0000000000
0.5978790000 0.0000000000 0.0000000000
0.6082250000 0.0000000000 0.0000000000
0.6170900000 0.0000000000 0.0000000000
0.6249490000 0.0000000000 0.0000000000
0.6314180000 0.0000000000 0.0000000000
0.6371710000 0.0000000000 0.0000000000
0.6428930000 0.0000000000 0.0000000000
0.0384530000 0.0561680000 0.0461430000
0.0386210000 0.0557410000 0.0480350000
0.0383920000 0.0552380000 0.0500340000
0.0400550000 0.0549780000 0.0513160000
0.0428470000 0.0550850000 0.0518200000
0.0400400000 0.0553290000 0.0520180000
0.0439310000 0.0560010000 0.0519720000
0.0620130000 0.0574350000 0.0517430000
0.0776230000 0.0601970000 0.0514990000
0.0911420000 0.0640120000 0.0511940000
0.1178000000 0.0677350000 0.0497900000
0.1562520000 0.0706490000 0.0464330000
0.1956210000 0.0739300000 0.0416420000
0.2337220000 0.0759590000 0.0354620000
0.2730750000 0.0745400000 0.0269170000
0.3144730000 0.0670330000 0.0000000000
0.3558100000 0.0519720000 0.0000000000
0.3949030000 0.0074310000 0.0000000000
0.4290380000 0.0000000000 0.0000000000
0.4620740000 0.0000000000 0.0000000000
0.4934000000 0.0000000000 0.0000000000
0.5209890000 0.0000000000 0.0000000000
0.5446100000 0.0000000000 0.0000000000
0.5659420000 0.0000000000 0.0000000000
0.5845120000 0.0000000000 0.0000000000
0.6001830000 0.0000000000 0.0000000000
0.6128630000 0.0000000000 0.0000000000
0.6230870000 0.0000000000 0.0000000000
0.6319980000 0.0000000000 0.0000000000
0.6400400000 0.0000000000 0.0000000000
0.6464640000 0.0000000000 0.0000000000
0.6521860000 0.0000000000 0.0000000000
0.6580610000 0.0000000000 0.0000000000
0.0387270000 0.0639050000 0.0519260000
0.0388800000 0.0632640000 0.0525220000
0.0385750000 0.0625470000 0.0531470000
0.0404210000 0.0621040000 0.0536810000
0.0437170000 0.0621190000 0.0540780000
0.0410770000 0.0623030000 0.0543680000
0.0454870000 0.0629890000 0.0545050000
0.0646520000 0.0647140000 0.0543680000
0.0808270000 0.0680860000 0.0541080000
0.0957350000 0.0726940000 0.0537120000
0.1230490000 0.0772560000 0.0527810000
0.1628140000 0.0800490000 0.0501870000
0.2030670000 0.0830400000 0.0442660000
0.2425880000 0.0855570000 0.0366830000
0.2833450000 0.0854960000 0.0266880000
0.3251240000 0.0813000000 0.0000000000
0.3676200000 0.0706340000 0.0000000000
0.4076750000 0.0532390000 0.0000000000
0.4436560000 0.0045620000 0.0000000000
0.4772560000 0.0000000000 0.0000000000
0.5090260000 0.0000000000 0.0000000000
0.5370410000 0.0000000000 0.0000000000
0.5609670000 0.0000000000 0.0000000000
0.5819790000 0.0000000000 0.0000000000
0.6005950000 0.0000000000 0.0000000000
0.6162660000 0.0000000000 0.0000000000
0.6289460000 0.0000000000 0.0000000000
0.6395210000 0.0000000000 0.0000000000
0.6484930000 0.0000000000 0.0000000000
0.6564740000 0.0000000000 0.0000000000
0.6631270000 0.0000000000 0.0000000000
0.6689560000 0.0000000000 0.0000000000
0.6747540000 0.0000000000 0.0000000000
0.0360880000 0.0762800000 0.0553290000
0.0363470000 0.0753340000 0.0556040000
0.0360420000 0.0743270000 0.0558790000
0.0383150000 0.0736400000 0.0561530000
0.0418400000 0.0735480000 0.0564280000
0.0396890000 0.0737160000 0.0568400000
0.0448160000 0.0744950000 0.0571760000
0.0663920000 0.0765390000 0.0571300000
0.0836350000 0.0802170000 0.0568250000
0.1003430000 0.0841230000 0.0563210000
0.1286640000 0.0881360000 0.0550850000
0.1694670000 0.0919200000 0.0526590000
0.2110480000 0.0960860000 0.0467080000
0.2522770000 0.0998860000 0.0372630000
0.2936290000 0.1010300000 0.0254670000
0.3367970000 0.0976730000 0.0000000000
0.3801630000 0.0907150000 0.0000000000
0.4209810000 0.0792250000 0.0000000000
0.4582130000 0.0646830000 0.0000000000
0.4941630000 0.0139470000 0.0000000000
0.5268330000 0.0044710000 0.0000000000
0.5550930000 0.0000000000 0.0000000000
0.5788660000 0.0000000000 0.0000000000
0.6000000000 0.0000150000 0.0000000000
0.6184330000 0.0000000000 0.0000000000
0.6341040000 0.0000000000 0.0000000000
0.6470130000 0.0000000000 0.0000000000
0.6576180000 0.0000000000 0.0000000000
0.6668500000 0.0000000000 0.0000000000
0.6750290000 0.0000000000 0.0000000000
0.6815590000 0.0000000000 0.0000000000
0.6873270000 0.0000000000 0.0000000000
0.6932780000 0.0000000000 0.0000000000
0.0133210000 0.0947430000 0.0581670000
0.0135350000 0.0936600000 0.0582130000
0.0134280000 0.0922560000 0.0582590000
0.0146790000 0.0915240000 0.0583500000
0.0276950000 0.0913710000 0.0585640000
0.0213470000 0.0916150000 0.0590830000
0.0355080000 0.0925610000 0.0595560000
0.0637670000 0.0945600000 0.0595100000
0.0841080000 0.0978710000 0.0590370000
0.1031200000 0.1024640000 0.0582280000
0.1335470000 0.1075610000 0.0565500000
0.1755700000 0.1123830000 0.0536660000
0.2193480000 0.1174030000 0.0466160000
0.2615850000 0.1215380000 0.0356300000
0.3046620000 0.1235830000 0.0101010000
0.3488370000 0.1219960000 0.0000000000
0.3933170000 0.1179830000 0.0000000000
0.4352640000 0.1107040000 0.0000000000
0.4731980000 0.1012890000 0.0000000000
0.5100940000 0.0885630000 0.0000000000
0.5448540000 0.0592660000 0.0000000000
0.5746550000 0.0351720000 0.0000000000
0.5995270000 0.0213930000 0.0000000000
0.6209510000 0.0000000000 0.0000000000
0.6393530000 0.0000000000 0.0000000000
0.6550240000 0.0000000000 0.0000000000
0.6679330000 0.0000000000 0.0000000000
0.6787670000 0.0000000000 0.0000000000
0.6880140000 0.0000000000 0.0000000000
0.6961780000 0.0000000000 0.0000000000
0.7028760000 0.0000000000 0.0000000000
0.7086900000 0.0000000000 0.0000000000
0.7145190000 0.0000000000 0.0000000000
0.0000000000 0.1135880000 0.0603950000
0.0000000000 0.1120160000 0.0604100000
0.0000000000 0.1101700000 0.0604260000
0.0000000000 0.1092390000 0.0604870000
0.0032200000 0.1094530000 0.0607610000
0.0011600000 0.1096360000 0.0614020000
0.0121920000 0.1114210000 0.0619970000
0.0557110000 0.1146260000 0.0618910000
0.0828720000 0.1188980000 0.0610970000
0.1048450000 0.1245290000 0.0598000000
0.1379720000 0.1295190000 0.0574810000
0.1823910000 0.1345080000 0.0537420000
0.2277260000 0.1402460000 0.0448620000
0.2717780000 0.1456470000 0.0324250000
0.3159990000 0.1488520000 0.0000000000
0.3616080000 0.1484090000 0.0000000000
0.4075840000 0.1456930000 0.0000000000
0.4508280000 0.1411610000 0.0000000000
0.4895860000 0.1354240000 0.0000000000
0.5270770000 0.1278550000 0.0000000000
0.5624780000 0.1182420000 0.0000000000
0.5933620000 0.1061110000 0.0000000000
0.6192420000 0.0926380000 0.0000000000
0.6418860000 0.0720530000 0.0000000000
0.6613720000 0.0626080000 0.0000000000
0.6777750000 0.0547950000 0.0000000000
0.6910960000 0.0491490000 0.0000000000
0.7019300000 0.0477000000 0.0000000000
0.7112840000 0.0486760000 0.0000000000
0.7192800000 0.0512400000 0.0000000000
0.7256120000 0.0563360000 0.0000000000
0.7311510000 0.0610060000 0.0000000000
0.7368120000 0.0648810000 0.0000000000
0.0000000000 0.1323870000 0.0622720000
0.0000000000 0.1305870000 0.0623940000
0.0000000000 0.1285730000 0.0624860000
0.0000000000 0.1273210000 0.0626380000
0.0000000000 0.1275500000 0.0629890000
0.0000000000 0.1278400000 0.0637980000
0.0000000000 0.1300530000 0.0645000000
0.0326540000 0.1345240000 0.0643020000
0.0806440000 0.1391620000 0.0630960000
0.1062490000 0.1452810000 0.0611580000
0.1424430000 0.1519040000 0.0580300000
0.1893800000 0.1575040000 0.0530100000
0.2364540000 0.1632870000 0.0424660000
0.2820480000 0.1690700000 0.0174260000
0.3278100000 0.1726560000 0.0000000000
0.3750510000 0.1734040000 0.0000000000
0.4226290000 0.1721680000 0.0000000000
0.4671240000 0.1695580000 0.0000000000
0.5070880000 0.1660490000 0.0000000000
0.5453120000 0.1610280000 0.0000000000
0.5811400000 0.1549250000 0.0000000000
0.6124970000 0.1481190000 0.0000000000
0.6389410000 0.1414360000 0.0000000000
0.6619970000 0.1349200000 0.0000000000
0.6820020000 0.1292130000 0.0000000000
0.6988170000 0.1250630000 0.0000000000
0.7122610000 0.1229880000 0.0000000000
0.7230490000 0.1232470000 0.0000000000
0.7321580000 0.1248650000 0.0000000000
0.7402150000 0.1271990000 0.0000000000
0.7464560000 0.1302360000 0.0000000000
0.7516900000 0.1338830000 0.0000000000
0.7571370000 0.1373770000 0.0000000000
0.0000000000 0.1531850000 0.0628820000
0.0000000000 0.1507130000 0.0632030000
0.0000000000 0.1479820000 0.0635230000
0.0000000000 0.1463490000 0.0638440000
0.0000000000 0.1465020000 0.0642710000
0.0000000000 0.1469600000 0.0651260000
0.0000000000 0.1497670000 0.0657820000
0.0213930000 0.1566800000 0.0653090000
0.0715500000 0.1629820000 0.0635390000
0.1051040000 0.1693750000 0.0607610000
0.1452960000 0.1764710000 0.0566260000
0.1953770000 0.1833520000 0.0491950000
0.2445260000 0.1899140000 0.0325470000
0.2917680000 0.1959110000 0.0017850000
0.3393910000 0.2000310000 0.0000150000
0.3879760000 0.2018460000 0.0000000000
0.4371860000 0.2019380000 0.0000000000
0.4831160000 0.2008090000 0.0000000000
0.5238730000 0.1988710000 0.0000000000
0.5628290000 0.1956050000 0.0000000000
0.5994510000 0.1914240000 0.0000000000
0.6313420000 0.1874420000 0.0000000000
0.6580610000 0.1835200000 0.0000000000
0.6815590000 0.1793090000 0.0000000000
0.7019910000 0.1757530000 0.0000000000
0.7189290000 0.1737090000 0.0000000000
0.7323870000 0.1734800000 0.0000000000
0.7432210000 0.1745020000 0.0000000000
0.7522700000 0.1762720000 0.0000000000
0.7600980000 0.1785460000 0.0000000000
0.7662470000 0.1816740000 0.0000000000
0.7715110000 0.1852750000 0.0000000000
0.7767760000 0.1884490000 0.0000000000
0.0000000000 0.1761350000 0.0614480000
0.0000000000 0.1737390000 0.0621190000
0.0000000000 0.1711150000 0.0628060000
0.0000000000 0.1695430000 0.0633710000
0.0000000000 0.1697110000 0.0637980000
0.0000000000 0.1702910000 0.0644690000
0.0001220000 0.1729610000 0.0647440000
0.0000000000 0.1807280000 0.0637060000
0.0477300000 0.1898070000 0.0611120000
0.0984660000 0.1971010000 0.0573890000
0.1449000000 0.2049290000 0.0511640000
0.1989930000 0.2126650000 0.0348360000
0.2507820000 0.2200500000 0.0042270000
0.3005720000 0.2264590000 0.0000000000
0.3495690000 0.2314790000 0.0000000000
0.3999690000 0.2343630000 0.0000000000
0.4503400000 0.2356600000 0.0000000000
0.4973530000 0.2357670000 0.0000000000
0.5391320000 0.2350650000 0.0000000000
0.5787590000 0.2330050000 0.0000000000
0.6159300000 0.2300300000 0.0000000000
0.6483410000 0.2271150000 0.0000000000
0.6755170000 0.2247040000 0.0000000000
0.6993510000 0.2223390000 0.0000000000
0.7198600000 0.2204320000 0.0000000000
0.7369800000 0.2196540000 0.0000000000
0.7505460000 0.2202490000 0.0000000000
0.7613340000 0.2218360000 0.0000000000
0.7703360000 0.2239260000 0.0000000000
0.7781640000 0.2262460000 0.0000000000
0.7841000000 0.2290990000 0.0000000000
0.7890590000 0.2322420000 0.0000000000
0.7942170000 0.2352940000 0.0000000000
0.0000000000 0.2001370000 0.0583810000
0.0000000000 0.1978030000 0.0596020000
0.0000000000 0.1949650000 0.0608990000
0.0000000000 0.1932400000 0.0618300000
0.0000000000 0.1934540000 0.0621810000
0.0000000000 0.1942020000 0.0623480000
0.0000000000 0.1971770000 0.0618300000
0.0000000000 0.2045010000 0.0598150000
0.0080720000 0.2159000000 0.0566410000
0.0849010000 0.2252540000 0.0500950000
0.1419850000 0.2338750000 0.0362100000
0.2009000000 0.2423290000 0.0042570000
0.2562290000 0.2502940000 0.0000000000
0.3083540000 0.2575880000 0.0000000000
0.3595180000 0.2635690000 0.0000000000
0.4107580000 0.2674140000 0.0000000000
0.4624250000 0.2697340000 0.0000000000
0.5102770000 0.2708780000 0.0000000000
0.5527430000 0.2710610000 0.0000000000
0.5931790000 0.2697800000 0.0000000000
0.6309610000 0.2674910000 0.0000000000
0.6638440000 0.2652780000 0.0000000000
0.6913100000 0.2636000000 0.0000000000
0.7152820000 0.2619820000 0.0000000000
0.7358510000 0.2608530000 0.0000000000
0.7530330000 0.2608070000 0.0000000000
0.7666740000 0.2621650000 0.0000000000
0.7775080000 0.2645000000 0.0000000000
0.7865260000 0.2672470000 0.0000000000
0.7941860000 0.2699630000 0.0000000000
0.7998780000 0.2727860000 0.0000000000
0.8045470000 0.2758220000 0.0000000000
0.8094300000 0.2787520000 0.0000000000
0.0000000000 0.2242620000 0.0537880000
0.0000000000 0.2216530000 0.0555120000
0.0000000000 0.2187080000 0.0573890000
0.0000000000 0.2169680000 0.0587620000
0.0000000000 0.2172580000 0.0589910000
0.0000000000 0.2181430000 0.0585180000
0.0000000000 0.2214240000 0.0570840000
0.0000310000 0.2292970000 0.0543220000
0.0000000000 0.2410160000 0.0466470000
0.0612040000 0.2539710000 0.0342110000
0.1360950000 0.2633400000 0.0011750000
0.2013430000 0.2722510000 0.0000000000
0.2607460000 0.2811320000 0.0000150000
0.3155110000 0.2894180000 0.0000000000
0.3684900000 0.2963300000 0.0000000000
0.4213320000 0.3011370000 0.0000000000
0.4736400000 0.3043110000 0.0000000000
0.5224380000 0.3061110000 0.0000000000
0.5656670000 0.3069960000 0.0000000000
0.6067440000 0.3064160000 0.0000000000
0.6452890000 0.3048750000 0.0000000000
0.6787060000 0.3034100000 0.0000000000
0.7063860000 0.3024190000 0.0000000000
0.7303580000 0.3014420000 0.0000000000
0.7510490000 0.3009230000 0.0000000000
0.7682460000 0.3015030000 0.0000000000
0.7819490000 0.3033650000 0.0000000000
0.7929660000 0.3060040000 0.0000000000
0.8018770000 0.3089340000 0.0000000000
0.8094150000 0.3117570000 0.0000000000
0.8149230000 0.3146560000 0.0000000000
0.8193180000 0.3176780000 0.0000000000
0.8238350000 0.3206840000 0.0000000000
0.0000000000 0.2493320000 0.0402530000
0.0000000000 0.2467380000 0.0455330000
0.0000000000 0.2438540000 0.0504920000
0.0000000000 0.2422060000 0.0526280000
0.0000000000 0.2426180000 0.0527050000
0.0000000000 0.2436870000 0.0516210000
0.0000000000 0.2471350000 0.0478520000
0.0000000000 0.2556040000 0.0387120000
0.0001070000 0.2679030000 0.0201880000
0.0000000000 0.2834970000 0.0000000000
0.1266040000 0.2945140000 0.0000460000
0.1994510000 0.3043870000 0.0000000000
0.2637670000 0.3141370000 0.0000000000
0.3216450000 0.3233540000 0.0000000000
0.3765010000 0.3312580000 0.0000000000
0.4307470000 0.3368890000 0.0000000000
0.4844890000 0.3407190000 0.0000000000
0.5341270000 0.3434500000 0.0000000000
0.5781800000 0.3451440000 0.0000000000
0.6202330000 0.3453120000 0.0000000000
0.6592660000 0.3444420000 0.0000000000
0.6931560000 0.3435720000 0.0000000000
0.7212630000 0.3431300000 0.0000000000
0.7455560000 0.3426570000 0.0000000000
0.7661860000 0.3425800000 0.0000000000
0.7835200000 0.3434650000 0.0000000000
0.7974060000 0.3456630000 0.0000000000
0.8083620000 0.3486990000 0.0000000000
0.8174870000 0.3519800000 0.0000000000
0.8249790000 0.3550470000 0.0000000000
0.8301980000 0.3581750000 0.0000000000
0.8343330000 0.3613180000 0.0000000000
0.8387430000 0.3642180000 0.0000000000
0.0000000000 0.2765390000 0.0116270000
0.0000000000 0.2739300000 0.0214390000
0.0000000000 0.2710150000 0.0258030000
0.0000000000 0.2693980000 0.0289920000
0.0000000000 0.2699470000 0.0290530000
0.0000000000 0.2712440000 0.0270540000
0.0000000000 0.2749980000 0.0228730000
0.0000000000 0.2839400000 0.0066380000
0.0000000000 0.2969100000 0.0000000000
0.0000000000 0.3133440000 0.0000000000
0.1018690000 0.3286790000 0.0000000000
0.1950260000 0.3394060000 0.0000000000
0.2646830000 0.3499200000 0.0000000000
0.3262070000 0.3601890000 0.0000000000
0.3835050000 0.3688870000 0.0000000000
0.4393530000 0.3750820000 0.0000000000
0.4946670000 0.3800110000 0.0000000000
0.5456470000 0.3837800000 0.0000000000
0.5908290000 0.3864040000 0.0000000000
0.6334480000 0.3874570000 0.0000000000
0.6733810000 0.3874570000 0.0000000000
0.7078970000 0.3873200000 0.0000000000
0.7364000000 0.3873660000 0.0000000000
0.7608910000 0.3871820000 0.0000000000
0.7819180000 0.3872890000 0.0000000000
0.7994200000 0.3883730000 0.0000000000
0.8134280000 0.3907840000 0.0000000000
0.8246430000 0.3940340000 0.0000000000
0.8337070000 0.3973140000 0.0000000000
0.8412300000 0.4003510000 0.0000000000
0.8465710000 0.4034490000 0.0000000000
0.8507520000 0.4065920000 0.0000000000
0.8551000000 0.4097200000 0.0000000000
0.0000000000 0.3045240000 0.0000000000
0.0000000000 0.3018850000 0.0000000000
0.0000000000 0.2989550000 0.0000000000
0.0000000000 0.2973530000 0.0000000000
0.0000000000 0.2980090000 0.0000000000
0.0000000000 0.2995040000 0.0000000000
0.0000000000 0.3035020000 0.0000000000
0.0000000000 0.3127640000 0.0000000000
0.0000000000 0.3268790000 0.0000310000
0.0000000000 0.3446710000 0.0000000000
0.0456400000 0.3637600000 0.0000000000
0.1893950000 0.3759060000 0.0000000000
0.2638590000 0.3871980000 0.0000000000
0.3292440000 0.3983220000 0.0000000000
0.3894870000 0.4074460000 0.0000000000
0.4474710000 0.4147400000 0.0000000000
0.5043560000 0.4206610000 0.0000000000
0.5568630000 0.4252690000 0.0000000000
0.6030060000 0.4286560000 0.0000000000
0.6467080000 0.4305790000 0.0000000000
0.6872970000 0.4314640000 0.0000000000
0.7224230000 0.4320440000 0.0000000000
0.7514610000 0.4325170000 0.0000000000
0.7764400000 0.4325170000 0.0000000000
0.7977570000 0.4326700000 0.0000000000
0.8155490000 0.4337830000 0.0000000000
0.8297700000 0.4361940000 0.0000000000
0.8410470000 0.4393840000 0.0000000000
0.8502940000 0.4428320000 0.0000000000
0.8579690000 0.4460360000 0.0000000000
0.8634160000 0.4493170000 0.0000000000
0.8676890000 0.4526890000 0.0000000000
0.8721900000 0.4559700000 0.0000000000
0.0000000000 0.3307390000 0.0000000000
0.0000000000 0.3280840000 0.0000000000
0.0000000000 0.3249100000 0.0000000000
0.0000000000 0.3231860000 0.0000000000
0.0000000000 0.3241170000 0.0000000000
0.0000000000 0.3260850000 0.0000000000
0.0000000000 0.3306320000 0.0000000000
0.0000000000 0.3403680000 0.0000000000
0.0000000000 0.3555810000 0.0000000000
0.0000150000 0.3745480000 0.0000000000
0.0169380000 0.3954830000 0.0000000000
0.1785310000 0.4104980000 0.0000000000
0.2622260000 0.4227360000 0.0000000000
0.3316240000 0.4344850000 0.0000000000
0.3945530000 0.4446020000 0.0000000000
0.4548100000 0.4529030000 0.0000000000
0.5137260000 0.4595860000 0.0000000000
0.5675590000 0.4649730000 0.0000000000
0.6149690000 0.4692300000 0.0000000000
0.6594950000 0.4720680000 0.0000000000
0.7009840000 0.4738230000 0.0000000000
0.7366900000 0.4751200000 0.0000000000
0.7662780000 0.4760360000 0.0000000000
0.7917300000 0.4762190000 0.0000000000
0.8133520000 0.4764630000 0.0000000000
0.8314790000 0.4776840000 0.0000000000
0.8458990000 0.4801400000 0.0000000000
0.8573130000 0.4833140000 0.0000000000
0.8667580000 0.4867480000 0.0000000000
0.8745400000 0.4900130000 0.0000000000
0.8801250000 0.4933550000 0.0000000000
0.8845650000 0.4968180000 0.0000000000
0.8892650000 0.5002670000 0.0000000000
0.0000000000 0.3532310000 0.0000000000
0.0000000000 0.3505610000 0.0000000000
0.0000000000 0.3475090000 0.0000000000
0.0000000000 0.3460290000 0.0000000000
0.0000000000 0.3473410000 0.0000000000
0.0000000000 0.3498130000 0.0000000000
0.0000000000 0.3551690000 0.0000000000
0.0000000000 0.3656060000 0.0000000000
0.0000000000 0.3817350000 0.0000000000
0.0000000000 0.4013890000 0.0000000000
0.0157780000 0.4236210000 0.0000000000
0.1638970000 0.4414590000 0.0000000000
0.2606240000 0.4546430000 0.0000000000
0.3337760000 0.4674300000 0.0000000000
0.3993440000 0.4786760000 0.0000000000
0.4616460000 0.4879840000 0.0000000000
0.5223320000 0.4955830000 0.0000000000
0.5779050000 0.5020220000 0.0000000000
0.6262760000 0.5072560000 0.0000000000
0.6719620000 0.5109640000 0.0000000000
