resources/color_luts/Filter 20.cube
TITLE "Generate by Resolve"
LUT_3D_SIZE 5
0.0353250000 0.0353250000 0.0353250000
0.0676740000 0.0365760000 0.0420840000
0.3185630000 0.0000000000 0.0000000000
0.5347070000 0.0000000000 0.0000000000
0.6076140000 0.0000000000 0.0000000000
0.0000000000 0.1135880000 0.0603950000
0.0828720000 0.1188980000 0.0610970000
0.4075840000 0.1456930000 0.0000000000
0.6613720000 0.0626080000 0.0000000000
0.7368120000 0.0648810000 0.0000000000
0.0000000000 0.3045240000 0.0000000000
0.0000000000 0.3268790000 0.0000310000
0.5043560000 0.4206610000 0.0000000000
0.7977570000 0.4326700000 0.0000000000
0.8721900000 0.4559700000 0.0000000000
0.0000000000 0.4397800000 0.0000000000
0.0000000000 0.4953540000 0.0000000000
0.5643400000 0.6585950000 0.0000000000
0.9019610000 0.7108260000 0.0000000000
0.9824830000 0.7319600000 0.0000000000
0.0000000000 0.4853130000 0.0000000000
0.0000000000 0.6029600000 0.0000000000
0.6408940000 0.7381250000 0.0000000000
0.9640340000 0.7998470000 0.0000000000
1.0000000000 0.8444340000 0.0000000000
0.0336310000 0.0275270000 0.1189590000
0.0761880000 0.0349580000 0.1153430000
0.3643090000 0.0000000000 0.1053480000
0.5927980000 0.0000000000 0.0645760000
0.6596480000 0.0000000000 0.1056230000
0.0000000000 0.1256730000 0.1527120000
0.1080340000 0.1265330000 0.1284756667
0.4686250000 0.1627933333 0.1231606667
0.7294573333 0.0739200000 0.0681723333
0.7981690000 0.0925920000 0.1246360000
0.0000000000 0.3597920000 0.2030370000
0.0000000000 0.3908193333 0.1873810000
0.5769740000 0.5060603333 0.0943773333
0.8815136667 0.5143360000 0.0329543333
0.9417560000 0.5402000000 0.0694590000
0.0000000000 0.5041890000 0.2839860000
0.0000000000 0.5770400000 0.2630810000
0.6173293333 0.7673406667 0.1361716667
0.9744970000 0.8196433333 0.0677196667
1.0000000000 0.8648810000 0.1068440000
0.0000000000 0.5518880000 0.4526590000
0.0000000000 0.6806440000 0.4621350000
0.6297090000 0.8392920000 0.4322420000
0.9734040000 0.9009840000 0.4063940000
1.0000000000 0.9340200000 0.4509040000
0.0000000000 0.0000000000 0.3607690000
0.0001980000 0.0000000000 0.3686580000
0.3692380000 0.0000000000 0.3935450000
0.6020450000 0.0000000000 0.3984890000
0.6638130000 0.0000000000 0.4393530000
0.0000000000 0.1173720000 0.4511480000
0.0000000000 0.1374376667 0.4517126667
0.4824443333 0.1618116667 0.4767223333
0.7443350000 0.0697286667 0.4764376667
0.8062410000 0.0917520000 0.5250480000
0.0000000000 0.4082550000 0.5662320000
0.0000000000 0.4387783333 0.5710333333
0.5596703333 0.5758703333 0.5864296667
0.8808166667 0.5862360000 0.5921110000
0.9345080000 0.6128180000 0.6386510000
0.0000000000 0.5529560000 0.6566410000
0.0000000000 0.6264896667 0.6733653333
0.5460133333 0.8430406667 0.6951250000
0.9467103333 0.9044633333 0.6978000000
0.9999850000 0.9227440000 0.7349660000
0.0000000000 0.5820250000 0.7365990000
0.0000000000 0.7085830000 0.7763180000
0.5642180000 0.8880600000 0.8028840000
0.9440910000 0.9594420000 0.8217440000
1.0000000000 0.9777220000 0.8450600000
0.0000000000 0.0000000000 0.5014110000
0.0000000000 0.0000000000 0.5202110000
0.3541310000 0.0000000000 0.5743800000
0.6021520000 0.0000000000 0.5966280000
0.6703440000 0.0000000000 0.6243690000
0.0000000000 0.0639510000 0.6234840000
0.0000000000 0.0787006667 0.6416113333
0.4793163333 0.1093206667 0.6960200000
0.7506316667 0.0365606667 0.7155360000
0.8178990000 0.0116120000 0.7447010000
0.0000000000 0.4229340000 0.7496910000
0.0000000000 0.4495053333 0.7731596667
0.5181660000 0.6029603333 0.8323796667
0.8774903333 0.6194806667 0.8606343333
0.9367510000 0.6481420000 0.8843210000
0.0000000000 0.5668120000 0.8054630000
0.0000000000 0.6369470000 0.8422626667
0.4856436667 0.8707916667 0.9086086667
0.9330536667 0.9456116667 0.9467256667
0.9963070000 0.9591210000 0.9607230000
0.0000000000 0.5875640000 0.8264900000
0.0000000000 0.7098190000 0.8769210000
0.5243760000 0.9039750000 0.9334550000
0.9344620000 0.9839630000 0.9749140000
1.0000000000 0.9971620000 0.9842980000
0.0000000000 0.0000000000 0.5288780000
0.0000000000 0.0000000000 0.5506680000
0.3479820000 0.0000000000 0.6156710000
0.6082860000 0.0000000000 0.6462960000
0.6779740000 0.0000000000 0.6662390000
0.0000000000 0.0770430000 0.6593580000
0.0000000000 0.0903490000 0.6830700000
0.4760360000 0.1392390000 0.7462880000
0.7633020000 0.0000000000 0.7739680000
0.8268100000 0.0803540000 0.7925840000
0.0000000000 0.4277710000 0.7759520000
0.0000000000 0.4529490000 0.8037080000
0.4991680000 0.6123600000 0.8740060000
0.8773630000 0.6338750000 0.9122910000
0.9390550000 0.6621650000 0.9268330000
0.0000000000 0.5679410000 0.8214690000
0.0000000000 0.6337530000 0.8608990000
0.4689710000 0.8726630000 0.9354850000
0.9292740000 0.9537650000 0.9841150000
0.9951930000 0.9654840000 0.9922480000
0.0000000000 0.5872130000 0.8343180000
0.0000000000 0.7066760000 0.8850230000
0.5054550000 0.9032580000 0.9459070000
0.9291830000 0.9858550000 0.9911960000
0.9999390000 1.0000000000 0.9999240000
