resources/color_luts/Filter 11.cube
TITLE "Generated by 3D LUT Creator Pro (c) Oleg Sharonov"
LUT_3D_SIZE 5
#INPUTGAMMA sRGB
#IMAGEPROFILE sRGB
#OUTPUTGAMMA sRGB
0.006683 0.009643 0.006653
0.034712 0.012423 0.006653
0.185866 0.027483 0.006653
0.558156 0.085623 0.006653
0.825734 0.191030 0.006653
0.008255 0.055963 0.012388
0.062405 0.060463 0.008146
0.226092 0.066559 0.006653
0.609472 0.129807 0.006653
0.839096 0.246130 0.006653
0.006683 0.218713 0.023973
0.082251 0.264563 0.017556
0.339376 0.252807 0.006653
0.717148 0.308624 0.006653
0.868880 0.440487 0.006653
0.006683 0.627915 0.060805
0.082251 0.703683 0.040666
0.489831 0.731286 0.050492
0.818950 0.773763 0.046209
0.896916 0.841549 0.192083
0.328310 0.912030 0.428550
0.479274 0.916742 0.466131
0.756344 0.922020 0.567371
0.879375 0.929992 0.742690
0.898592 0.939379 0.870668
0.006683 0.011762 0.029065
0.070585 0.020456 0.055549
0.337430 0.009643 0.018019
0.649978 0.052915 0.006660
0.850090 0.164159 0.006660
0.006683 0.046763 0.041672
0.155503 0.151609 0.120535
0.400012 0.066400 0.013099
0.682873 0.108811 0.006660
0.859979 0.223001 0.006660
0.006683 0.212121 0.070445
0.103358 0.358922 0.104575
0.447411 0.340727 0.058910
0.751990 0.306877 0.006660
0.882358 0.430173 0.006660
0.006683 0.629441 0.139614
0.072692 0.725665 0.131239
0.521998 0.774050 0.154133
0.827774 0.798995 0.151031
0.897913 0.848594 0.305546
0.336153 0.913252 0.506617
0.487949 0.917748 0.539427
0.761085 0.924016 0.626807
0.880171 0.930961 0.771666
0.898575 0.939563 0.876201
0.006683 0.024863 0.103154
0.021999 0.016401 0.427648
0.378394 0.029333 0.295436
0.764877 0.009643 0.176642
0.897314 0.016010 0.061350
0.006683 0.059819 0.120156
0.017253 0.096666 0.333489
0.480544 0.147149 0.383994
0.846279 0.009651 0.180927
0.897314 0.088138 0.048295
0.006683 0.215801 0.222150
0.028524 0.322706 0.345329
0.599057 0.551824 0.512811
0.847610 0.415149 0.283587
0.897314 0.458776 0.146596
0.006683 0.639068 0.384210
0.036092 0.733889 0.426832
0.567180 0.838685 0.529378
0.846150 0.843733 0.513951
0.898545 0.867161 0.589951
0.366714 0.917050 0.683085
0.521521 0.920947 0.702675
0.772682 0.927760 0.755472
0.883273 0.934334 0.840346
0.898472 0.940100 0.890280
0.006683 0.061741 0.313509
0.006691 0.067350 0.394865
0.326353 0.009643 0.788828
0.819322 0.011041 0.729350
0.897314 0.092317 0.646932
0.006683 0.107050 0.351091
0.006691 0.115210 0.440486
0.347232 0.087698 0.856512
0.826143 0.150843 0.746246
0.897314 0.183845 0.676823
0.006683 0.269786 0.476230
0.006691 0.292782 0.554259
0.338804 0.479614 0.816343
0.844893 0.582431 0.794155
0.897314 0.641035 0.737884
0.006683 0.678604 0.665790
0.006691 0.741566 0.719503
0.464036 0.842492 0.807304
0.850189 0.872198 0.826849
0.898303 0.888670 0.826378
0.456991 0.923617 0.849533
0.598876 0.926403 0.856384
0.794293 0.931728 0.870107
0.889326 0.938664 0.892819
0.898060 0.940824 0.907462
0.006683 0.136027 0.630843
0.006691 0.145109 0.636656
0.033789 0.052118 0.916319
0.783876 0.070214 0.916319
0.897314 0.251066 0.916319
0.006683 0.186159 0.662799
0.006691 0.196166 0.668379
0.026014 0.157108 0.916319
0.800744 0.165708 0.916319
0.897314 0.407578 0.916319
0.006683 0.365917 0.747119
0.006691 0.382105 0.781501
0.019760 0.451125 0.916319
0.802891 0.612548 0.916319
0.897314 0.782529 0.916319
0.006683 0.755095 0.859736
0.006691 0.774736 0.876193
0.285931 0.846588 0.916319
0.827103 0.882533 0.916319
0.898593 0.908647 0.910289
0.618381 0.931764 0.903530
0.708644 0.933890 0.905042
0.817963 0.936202 0.907088
0.889977 0.939062 0.910936
0.897314 0.941042 0.916319
