resources/color_luts/Filter 11.cube
TITLE "Generated by 3D LUT Creator Pro (c) Oleg Sharonov"
LUT_3D_SIZE 9
#INPUTGAMMA sRGB
#IMAGEPROFILE sRGB
#OUTPUTGAMMA sRGB
0.006683 0.009643 0.006653
0.012331 0.010073 0.006653
0.034712 0.012423 0.006653
0.086106 0.018000 0.006653
0.185866 0.027483 0.006653
0.334678 0.048477 0.006653
0.558156 0.085623 0.006653
0.748224 0.131163 0.006653
0.825734 0.191030 0.006653
0.007464 0.021756 0.008289
0.021460 0.023178 0.007879
0.041279 0.021228 0.006653
0.095069 0.024468 0.006653
0.198167 0.036015 0.006653
0.349274 0.060780 0.006653
0.574293 0.098440 0.006653
0.755407 0.144478 0.006653
0.829773 0.206129 0.006653
0.008255 0.055963 0.012388
0.025146 0.068951 0.013210
0.062405 0.060463 0.008146
0.119706 0.051489 0.006653
0.226092 0.066559 0.006653
0.382827 0.094444 0.006653
0.609472 0.129807 0.006653
0.772086 0.180888 0.006653
0.839096 0.246130 0.006653
0.007464 0.121368 0.016751
0.024801 0.143852 0.018352
0.083378 0.145501 0.015703
0.170375 0.131547 0.006653
0.266230 0.126361 0.006653
0.441408 0.153657 0.006653
0.661485 0.195401 0.006653
0.796850 0.252680 0.006653
0.852987 0.320409 0.006653
0.006683 0.218713 0.023973
0.018373 0.262612 0.020358
0.082251 0.264563 0.017556
0.212297 0.270392 0.013091
0.339376 0.252807 0.006653
0.518466 0.263466 0.006653
0.717148 0.308624 0.006653
0.825378 0.367656 0.006653
0.868880 0.440487 0.006653
0.006683 0.370587 0.036870
0.006743 0.415153 0.021230
0.073990 0.442299 0.020358
0.228301 0.452584 0.018012
0.423898 0.472911 0.016054
0.625184 0.466450 0.006653
0.765411 0.494233 0.006653
0.856710 0.566264 0.006653
0.888996 0.656442 0.006653
0.006683 0.627915 0.060805
0.006687 0.665339 0.041390
0.082251 0.703683 0.040666
0.258847 0.713925 0.043522
0.489831 0.731286 0.050492
0.714687 0.757350 0.066108
0.818950 0.773763 0.046209
0.886284 0.809378 0.082603
0.896916 0.841549 0.192083
0.020919 0.840139 0.120914
0.052138 0.845075 0.127678
0.176291 0.855829 0.145505
0.355687 0.859398 0.166539
0.598970 0.865202 0.203899
0.764839 0.873509 0.263266
0.850083 0.884494 0.358129
0.894360 0.896884 0.520807
0.897539 0.908639 0.615795
0.328310 0.912030 0.428550
0.368489 0.913487 0.439262
0.479274 0.916742 0.466131
0.634093 0.919325 0.507054
0.756344 0.922020 0.567371
0.831427 0.925580 0.648509
0.879375 0.929992 0.742690
0.898551 0.936571 0.848230
0.898592 0.939379 0.870668
0.006683 0.009931 0.009281
0.020382 0.012323 0.020471
0.065270 0.012628 0.014171
0.141308 0.013063 0.006656
0.212962 0.023373 0.006656
0.360171 0.041996 0.006656
0.582655 0.078814 0.006656
0.758551 0.125003 0.006656
0.832564 0.184480 0.006656
0.006831 0.020347 0.018469
0.033393 0.043823 0.035642
0.082734 0.029337 0.019031
0.149058 0.023575 0.006656
0.223350 0.031316 0.006656
0.373135 0.054677 0.006656
0.596626 0.092463 0.006656
0.765181 0.138290 0.006656
0.836319 0.199873 0.006656
0.007370 0.053881 0.024488
0.032617 0.107678 0.038990
0.105546 0.097079 0.030259
0.172030 0.063195 0.006723
0.245944 0.062873 0.006656
0.405690 0.090174 0.006656
0.628942 0.125133 0.006656
0.780713 0.175098 0.006656
0.844956 0.240544 0.006656
0.006769 0.119663 0.029247
0.025232 0.162628 0.036382
0.106698 0.182435 0.036709
0.205923 0.158394 0.019699
0.297539 0.133663 0.006656
0.461996 0.151612 0.006656
0.676382 0.191811 0.006656
0.803760 0.248238 0.006656
0.857865 0.316151 0.006656
0.006683 0.216815 0.037122
0.016005 0.261147 0.036054
0.092113 0.297975 0.037205
0.234392 0.301968 0.033188
0.372691 0.276910 0.006656
0.533783 0.264928 0.006656
0.725953 0.307343 0.006656
0.830320 0.365046 0.006656
0.872493 0.437359 0.006656
0.006683 0.369613 0.052333
0.006687 0.413750 0.039602
0.076587 0.474131 0.040401
0.238772 0.483032 0.038130
0.444470 0.501277 0.036464
0.646909 0.488271 0.006656
0.776076 0.507574 0.006656
0.862659 0.573209 0.006656
0.892201 0.661015 0.006656
0.006683 0.628220 0.081321
0.006687 0.665430 0.063990
0.082090 0.720163 0.065051
0.263482 0.729008 0.068122
0.499619 0.744408 0.075442
0.720983 0.768050 0.090599
0.821616 0.781500 0.072327
0.887034 0.813795 0.111535
0.897251 0.843559 0.225416
0.019926 0.840671 0.150893
0.050541 0.845568 0.158582
0.174917 0.856582 0.178239
0.358376 0.862285 0.201424
0.602435 0.867638 0.236481
0.766504 0.875523 0.293534
0.850999 0.886045 0.385713
0.894532 0.897895 0.540829
0.897633 0.909401 0.630627
0.330162 0.912353 0.451572
0.370587 0.913814 0.462093
0.481671 0.917028 0.488048
0.636964 0.920082 0.528518
0.757672 0.922612 0.585261
0.832158 0.926026 0.661577
0.879587 0.930270 0.751332
0.898565 0.936861 0.852701
0.898588 0.939430 0.872302
0.006683 0.011762 0.029065
0.015325 0.015752 0.057541
0.070585 0.020456 0.055549
0.187764 0.012952 0.039694
0.337430 0.009643 0.018019
0.458290 0.020000 0.006660
0.649978 0.052915 0.006660
0.785957 0.104764 0.006660
0.850090 0.164159 0.006660
0.006683 0.020003 0.032144
0.017154 0.032611 0.064949
0.112416 0.052122 0.082118
0.216522 0.031829 0.047000
0.421386 0.009723 0.007126
0.467610 0.030436 0.006660
0.659944 0.069107 0.006660
0.791231 0.118797 0.006660
0.853107 0.180241 0.006660
0.006683 0.046763 0.041672
0.021281 0.091897 0.074619
0.155503 0.151609 0.120535
0.272802 0.114461 0.067915
0.400012 0.066400 0.013099
0.496788 0.071962 0.006660
0.682873 0.108811 0.006660
0.803525 0.156852 0.006660
0.859979 0.223001 0.006660
0.006683 0.114714 0.055236
0.018927 0.156600 0.074515
0.143281 0.260899 0.123249
0.294527 0.240797 0.090916
0.404714 0.171371 0.029065
0.556487 0.151229 0.006660
0.715068 0.179477 0.006660
0.821915 0.233809 0.006660
0.870190 0.302433 0.006660
0.006683 0.212121 0.070445
0.009933 0.257353 0.075960
0.103358 0.358922 0.104575
0.284343 0.378766 0.101145
0.447411 0.340727 0.058910
0.628125 0.298446 0.006660
0.751990 0.306877 0.006660
0.843286 0.356394 0.006660
0.882358 0.430173 0.006660
0.006683 0.367660 0.093475
0.006687 0.410371 0.088751
0.071719 0.511318 0.100679
0.262482 0.557865 0.104815
0.492571 0.569916 0.099636
0.684789 0.544105 0.051313
0.801782 0.539275 0.006660
0.876681 0.588658 0.006660
0.898278 0.670757 0.006660
0.006683 0.629441 0.139614
0.006687 0.665886 0.125592
0.072692 0.725665 0.131239
0.273297 0.763134 0.145916
0.521998 0.774050 0.154133
0.734011 0.791642 0.173009
0.827774 0.798995 0.151031
0.888755 0.823549 0.200381
0.897913 0.848594 0.305546
0.017434 0.841970 0.226550
0.046763 0.846805 0.234884
0.170785 0.857645 0.255471
0.364396 0.869045 0.285362
0.610485 0.873492 0.316636
0.770402 0.880219 0.368681
0.853013 0.889685 0.451576
0.894903 0.900304 0.587027
0.897833 0.911267 0.664985
0.336153 0.913252 0.506617
0.376194 0.914658 0.516128
0.487949 0.917748 0.539427
0.644349 0.921824 0.578351
0.761085 0.924016 0.626807
0.833934 0.927113 0.692266
0.880171 0.930961 0.771666
0.898591 0.937571 0.862574
0.898575 0.939563 0.876201
0.006683 0.017598 0.058808
0.006687 0.019407 0.099179
0.052731 0.021857 0.147668
0.191829 0.026826 0.134820
0.377081 0.009643 0.101617
0.569158 0.009643 0.063361
0.742034 0.009643 0.029809
0.838975 0.031955 0.006664
0.880926 0.110816 0.006664
0.006683 0.024369 0.059125
0.006687 0.028164 0.094570
0.065270 0.045671 0.178112
0.225697 0.056441 0.166415
0.408492 0.024967 0.112915
0.635460 0.009647 0.060076
0.769789 0.009647 0.018363
0.841324 0.051644 0.006664
0.882402 0.128075 0.006664
0.006683 0.046607 0.067495
0.006687 0.063195 0.100799
0.090858 0.131046 0.232786
0.307802 0.158390 0.248022
0.478271 0.107050 0.146727
0.728240 0.036018 0.051215
0.796269 0.040655 0.006664
0.847014 0.104772 0.006664
0.885727 0.175098 0.006664
0.006683 0.105031 0.088552
0.006715 0.139178 0.128608
0.099036 0.244895 0.243564
0.346662 0.320294 0.299558
0.559286 0.265898 0.203780
0.716720 0.183978 0.073169
0.807266 0.151357 0.006664
0.859367 0.194376 0.006664
0.891860 0.268327 0.006664
0.006683 0.205758 0.125857
0.006687 0.250095 0.153597
0.074801 0.351536 0.225424
0.321692 0.473761 0.294841
0.565586 0.457682 0.246820
0.711625 0.372637 0.116319
0.820841 0.327617 0.015832
0.879954 0.352754 0.006664
0.898467 0.428027 0.006664
0.006683 0.365268 0.176504
0.006687 0.405973 0.188119
0.049829 0.508903 0.223409
0.283733 0.650941 0.283107
0.555121 0.667607 0.276437
0.729084 0.635082 0.210263
0.823151 0.605211 0.114422
0.889637 0.625150 0.071393
0.897882 0.704064 0.117082
0.006683 0.632475 0.248142
0.006687 0.667611 0.247060
0.055423 0.728661 0.261718
0.275517 0.794907 0.303908
0.551415 0.812776 0.316989
0.749675 0.821759 0.327860
0.836752 0.823098 0.308127
0.891180 0.836472 0.346569
0.898500 0.856717 0.435857
0.013438 0.844429 0.346456
0.041275 0.849100 0.356129
0.164141 0.859610 0.379319
0.363951 0.874201 0.416640
0.622216 0.882359 0.450005
0.775915 0.887468 0.489437
0.855592 0.895124 0.552645
0.895377 0.904221 0.654967
0.898079 0.914239 0.716904
0.347444 0.914784 0.589729
0.386998 0.916097 0.597413
0.500226 0.919031 0.616273
0.652397 0.923033 0.647217
0.766698 0.926154 0.687496
0.836087 0.928330 0.737828
0.881360 0.932305 0.803202
0.898596 0.938686 0.875099
0.898543 0.939790 0.882563
0.006683 0.024863 0.103154
0.006687 0.025878 0.107970
0.021999 0.016401 0.427648
0.178353 0.024265 0.326366
0.378394 0.029333 0.295436
0.620397 0.009643 0.241018
0.764877 0.009643 0.176642
0.860816 0.009643 0.116577
0.897314 0.016010 0.061350
0.006683 0.032218 0.106389
0.006687 0.033811 0.117723
0.019661 0.038444 0.392397
0.190611 0.050533 0.349395
0.405199 0.059655 0.320357
0.680122 0.009647 0.266157
0.791198 0.009647 0.182129
0.874514 0.009647 0.108704
0.897314 0.031829 0.059023
0.006683 0.059819 0.120156
0.006687 0.063355 0.141361
0.017253 0.096666 0.333489
0.227130 0.137540 0.414255
0.480544 0.147149 0.383994
0.712673 0.084737 0.296852
0.846279 0.009651 0.180927
0.897913 0.009651 0.078824
0.897314 0.088138 0.048295
0.006683 0.117201 0.161428
0.006687 0.122337 0.180525
0.019389 0.181149 0.318154
0.270079 0.304188 0.486490
0.569841 0.322015 0.466817
0.744893 0.250338 0.353668
0.854869 0.176260 0.217833
0.897310 0.106173 0.050710
0.897314 0.236060 0.074834
0.006683 0.215801 0.222150
0.006687 0.227165 0.236246
0.028524 0.322706 0.345329
0.270699 0.477176 0.483895
0.599057 0.551824 0.512811
0.765873 0.496660 0.423555
0.847610 0.415149 0.283587
0.898589 0.383516 0.158054
0.897314 0.458776 0.146596
0.006683 0.373503 0.291653
0.006687 0.402642 0.311636
0.029915 0.507332 0.377250
0.245813 0.649790 0.465859
0.575804 0.730110 0.512459
0.758716 0.722850 0.469493
0.841933 0.689948 0.379650
0.895066 0.690855 0.325444
0.897314 0.749676 0.364486
0.006683 0.639068 0.384210
0.006687 0.672277 0.396564
0.036092 0.733889 0.426832
0.250390 0.798180 0.480913
0.567180 0.838685 0.529378
0.760610 0.842645 0.529378
0.846150 0.843733 0.513951
0.893795 0.849950 0.531239
0.898545 0.867161 0.589951
0.008599 0.848241 0.499820
0.035727 0.852689 0.509462
0.155922 0.862738 0.532166
0.355911 0.876713 0.566147
0.629422 0.890764 0.604644
0.781010 0.895675 0.628861
0.856987 0.900774 0.663805
0.895472 0.908752 0.731363
0.898117 0.917397 0.776233
0.366714 0.917050 0.683085
0.407747 0.918265 0.688766
0.521521 0.920947 0.702675
0.665394 0.924556 0.725583
0.772682 0.927760 0.755472
0.840119 0.930322 0.792389
0.883273 0.934334 0.840346
0.898509 0.939952 0.888895
0.898472 0.940100 0.890280
0.006683 0.037430 0.190117
0.006687 0.039463 0.191441
0.006691 0.036717 0.354905
0.134653 0.009643 0.650239
0.381483 0.017464 0.565530
0.656832 0.021224 0.518575
0.792983 0.009643 0.447050
0.876267 0.009643 0.387348
0.897314 0.041395 0.352886
0.006683 0.048481 0.198164
0.006687 0.050692 0.199476
0.006691 0.051009 0.348496
0.132098 0.024269 0.684692
0.389652 0.044898 0.576481
0.669543 0.051644 0.533096
0.815415 0.009647 0.475095
0.886910 0.009647 0.398909
0.897314 0.067354 0.360267
0.006683 0.080508 0.220126
0.006687 0.083086 0.227689
0.006691 0.089740 0.348271
0.123701 0.117197 0.668871
0.417886 0.133285 0.608918
0.699636 0.142456 0.569780
0.840530 0.058051 0.515092
0.897310 0.009651 0.420370
0.897314 0.136536 0.379436
0.006683 0.135537 0.260646
0.006687 0.140691 0.285729
0.006691 0.154424 0.372325
0.110419 0.237807 0.621109
0.474219 0.300909 0.660164
0.737922 0.312335 0.625014
0.845042 0.244151 0.548375
0.897310 0.191170 0.454920
0.897314 0.263950 0.406099
0.006683 0.238434 0.341591
0.006687 0.245643 0.359264
0.006691 0.277030 0.429994
0.120705 0.394022 0.599260
0.511541 0.535842 0.688243
0.755646 0.553802 0.663865
0.852669 0.503334 0.600528
0.897904 0.477907 0.523409
0.897314 0.562130 0.506273
0.006683 0.397067 0.432531
0.006687 0.406089 0.442679
0.006691 0.483154 0.516576
0.165810 0.625970 0.617346
0.515015 0.733817 0.682660
0.766172 0.775870 0.695594
0.852600 0.757471 0.647225
0.898176 0.755531 0.605341
0.897314 0.796722 0.613937
0.006683 0.651040 0.530059
0.006687 0.681793 0.550963
0.020566 0.742561 0.595427
0.218759 0.803577 0.647106
0.535704 0.842776 0.692434
0.763665 0.857445 0.708323
0.849229 0.858072 0.693888
0.895539 0.864512 0.697597
0.898144 0.878691 0.725167
0.006683 0.853602 0.650121
0.031832 0.857822 0.657982
0.148632 0.867201 0.676054
0.348361 0.880417 0.702023
0.621223 0.893763 0.729530
0.782251 0.902127 0.749300
0.857955 0.907026 0.767621
0.895275 0.913810 0.805233
0.898312 0.921741 0.834246
0.398921 0.920041 0.774008
0.443947 0.921098 0.777952
0.554060 0.923411 0.787306
0.685636 0.926596 0.802273
0.781249 0.929515 0.820619
0.845981 0.932848 0.844968
0.886085 0.936753 0.871833
0.898450 0.940347 0.896636
0.898331 0.940462 0.897943
0.006683 0.061741 0.313509
0.006687 0.064310 0.315140
0.006691 0.067350 0.394865
0.014940 0.009643 0.848593
0.326353 0.009643 0.788828
0.661993 0.009643 0.761914
0.819322 0.011041 0.729350
0.890230 0.009643 0.679431
0.897314 0.092317 0.646932
0.006683 0.074942 0.323951
0.006687 0.077430 0.325797
0.006691 0.081418 0.408309
0.006695 0.028050 0.847444
0.349835 0.009647 0.839341
0.675690 0.028862 0.776088
0.821023 0.046603 0.733649
0.897123 0.009647 0.698624
0.897314 0.117317 0.655849
0.006683 0.107050 0.351091
0.006687 0.109314 0.352777
0.006691 0.115210 0.440486
0.006695 0.108811 0.779317
0.347232 0.087698 0.856512
0.682669 0.130674 0.783019
0.826143 0.150843 0.746246
0.898403 0.084737 0.718786
0.897314 0.183845 0.676823
0.006683 0.164812 0.398594
0.006687 0.168155 0.408204
0.006691 0.179605 0.490918
0.006695 0.209575 0.729442
0.339605 0.268327 0.842065
0.701557 0.302667 0.799948
0.835344 0.326473 0.768458
0.898547 0.290289 0.730132
0.897314 0.353192 0.703438
0.006683 0.269786 0.476230
0.006687 0.276429 0.497207
0.006691 0.292782 0.554259
0.006695 0.357604 0.722067
0.338804 0.479614 0.816343
0.725269 0.556819 0.820227
0.844893 0.582431 0.794155
0.898208 0.564312 0.753929
0.897314 0.641035 0.737884
0.006683 0.431968 0.575654
0.006687 0.440973 0.588868
0.006691 0.464257 0.623072
0.023065 0.587883 0.739444
0.369163 0.707565 0.799370
0.734142 0.775245 0.823284
0.845523 0.789896 0.806912
0.897493 0.798561 0.785597
0.897314 0.829581 0.782462
0.006683 0.678604 0.665790
0.006687 0.687042 0.672761
0.006691 0.741566 0.719503
0.142861 0.802889 0.769051
0.464036 0.842492 0.807304
0.745637 0.860760 0.823434
0.850189 0.872198 0.826849
0.894671 0.876303 0.817769
0.898303 0.888670 0.826378
0.006683 0.860859 0.773741
0.030316 0.864794 0.780033
0.146100 0.873336 0.793594
0.344959 0.885430 0.812069
0.615971 0.897853 0.829964
0.779083 0.905902 0.839929
0.859025 0.913693 0.851098
0.895330 0.919707 0.864098
0.898479 0.926390 0.875763
0.456991 0.923617 0.849533
0.503163 0.924483 0.851659
0.598876 0.926403 0.856384
0.714084 0.929274 0.863234
0.794293 0.931728 0.870107
0.853387 0.935296 0.880134
0.889326 0.938664 0.892819
0.898358 0.940667 0.905516
0.898060 0.940824 0.907462
0.006683 0.096245 0.469028
0.006687 0.098707 0.471028
0.006691 0.104123 0.496848
0.006695 0.088861 0.744118
0.206992 0.009643 0.907569
0.606652 0.009643 0.891141
0.820612 0.009643 0.886256
0.894910 0.048477 0.866436
0.897314 0.151601 0.838915
0.006683 0.108555 0.480551
0.006687 0.110820 0.482604
0.006691 0.116201 0.514225
0.006695 0.106543 0.742101
0.198302 0.010514 0.916315
0.635460 0.009647 0.908119
0.823890 0.036015 0.889247
0.894613 0.101914 0.866614
0.897314 0.176124 0.845808
0.006683 0.140057 0.508854
0.006687 0.142582 0.510534
0.006691 0.149185 0.554263
0.006695 0.148549 0.741661
0.157745 0.064157 0.916315
0.669472 0.047231 0.916315
0.822228 0.154420 0.887981
0.894255 0.214272 0.867867
0.897314 0.266015 0.855323
0.006683 0.204861 0.555221
0.006687 0.207665 0.556893
0.006691 0.218077 0.612664
0.006695 0.229548 0.750461
0.074647 0.220101 0.916315
0.639820 0.269298 0.915750
0.823331 0.339600 0.888453
0.894285 0.396494 0.871214
0.897314 0.467418 0.858760
0.006683 0.311992 0.616222
0.006687 0.316962 0.628553
0.006691 0.332273 0.677807
0.006695 0.354521 0.771646
0.116711 0.441210 0.904436
0.645519 0.539389 0.907015
0.827731 0.599385 0.890426
0.894472 0.655591 0.876325
0.897314 0.716727 0.865859
0.006683 0.480472 0.699240
0.006687 0.489488 0.711874
0.006691 0.511680 0.744205
0.006695 0.573436 0.818205
0.208322 0.689369 0.883646
0.666049 0.771449 0.896078
0.831431 0.803984 0.890110
0.892748 0.825539 0.879532
0.897314 0.846606 0.873935
0.006683 0.715369 0.779660
0.006687 0.722148 0.787205
0.006691 0.747480 0.812707
0.025668 0.806502 0.864084
0.359609 0.840600 0.879821
0.713002 0.863167 0.889677
0.839265 0.877081 0.889929
0.891998 0.886700 0.885193
0.898543 0.898907 0.884546
0.006683 0.868488 0.862068
0.013241 0.872622 0.866791
0.125977 0.879642 0.872387
0.334785 0.890005 0.880152
0.611164 0.901309 0.887340
0.778220 0.909823 0.890470
0.857939 0.917831 0.892842
0.895052 0.924867 0.895265
0.898575 0.931305 0.899739
0.545898 0.927677 0.892411
0.583087 0.928422 0.893010
0.658971 0.930044 0.894302
0.747071 0.932426 0.896307
0.812553 0.934768 0.898316
0.862605 0.937520 0.902122
0.890516 0.939020 0.906678
0.898132 0.940948 0.913714
0.897526 0.941048 0.915252
0.006683 0.136027 0.630843
0.006687 0.138663 0.632607
0.006691 0.145109 0.636656
0.006695 0.145744 0.775098
0.033789 0.052118 0.916319
0.477643 0.054033 0.916319
0.783876 0.070214 0.916319
0.891180 0.109558 0.916319
0.897314 0.251066 0.916319
0.006683 0.149564 0.640395
0.006687 0.152116 0.641791
0.006691 0.158899 0.645869
0.006695 0.161465 0.781389
0.031844 0.087988 0.916319
0.483445 0.081266 0.916319
0.789191 0.098711 0.916319
0.892156 0.144732 0.916319
0.897314 0.298317 0.916319
0.006683 0.186159 0.662799
0.006687 0.188984 0.664330
0.006691 0.196166 0.668379
0.006695 0.203581 0.796668
0.026014 0.157108 0.916319
0.493072 0.144609 0.916319
0.800744 0.165708 0.916319
0.890312 0.266623 0.916319
0.897314 0.407578 0.916319
0.006683 0.256368 0.699448
0.006687 0.259309 0.700718
0.006691 0.268206 0.721270
0.006695 0.282784 0.820813
0.021472 0.277748 0.916319
0.490333 0.283860 0.916319
0.807113 0.327613 0.916319
0.888435 0.455976 0.916319
0.897314 0.602624 0.916319
0.006683 0.365917 0.747119
0.006687 0.368958 0.748239
0.006691 0.382105 0.781501
0.006695 0.404818 0.850564
0.019760 0.451125 0.916319
0.486709 0.537853 0.916319
0.802891 0.612548 0.916319
0.887128 0.703290 0.916319
0.897314 0.782529 0.916319
0.006683 0.543047 0.802485
0.006687 0.551362 0.812932
0.006691 0.572075 0.839080
0.006695 0.605211 0.876615
0.043747 0.698048 0.916319
0.553544 0.770575 0.916319
0.811109 0.817993 0.916319
0.886507 0.842335 0.916319
0.897466 0.863276 0.915659
0.006683 0.755095 0.859736
0.006687 0.760815 0.864773
0.006691 0.774736 0.876193
0.006695 0.819871 0.906063
0.285931 0.846588 0.916319
0.675069 0.867161 0.916319
0.827103 0.882533 0.916319
0.887559 0.895715 0.913795
0.898593 0.908647 0.910289
0.006683 0.879393 0.895469
0.015422 0.882779 0.898420
0.135926 0.888443 0.901399
0.348814 0.896970 0.905665
0.623783 0.906640 0.909441
0.783812 0.915077 0.910527
0.859138 0.922065 0.909430
0.894881 0.929609 0.909574
0.898586 0.936522 0.911562
0.618381 0.931764 0.903530
0.647586 0.932388 0.903991
0.708644 0.933890 0.905042
0.768407 0.935639 0.906391
0.817963 0.936202 0.907088
0.861139 0.937520 0.908769
0.889977 0.939062 0.910936
0.898200 0.940965 0.915131
0.897314 0.941042 0.916319
