resources/color_luts/Filter 11.cube
TITLE "Generated by 3D LUT Creator Pro (c) Oleg Sharonov"
LUT_3D_SIZE 33
#INPUTGAMMA sRGB
#IMAGEPROFILE sRGB
#OUTPUTGAMMA sRGB
0.006683 0.009643 0.006653
0.006931 0.009681 0.006653
0.007466 0.009760 0.006653
0.008903 0.009886 0.006653
0.012331 0.010073 0.006653
0.017250 0.010392 0.006653
0.023147 0.010969 0.006653
0.029099 0.011590 0.006653
0.034712 0.012423 0.006653
0.042243 0.013411 0.006653
0.052291 0.014616 0.006653
0.066876 0.016140 0.006653
0.086106 0.018000 0.006653
0.106989 0.020230 0.006653
0.129826 0.022370 0.006653
0.156208 0.024663 0.006653
0.185866 0.027483 0.006653
0.218501 0.031185 0.006653
0.254193 0.035871 0.006653
0.292966 0.041545 0.006653
0.334678 0.048477 0.006653
0.379386 0.056276 0.006653
0.432751 0.065272 0.006653
0.495307 0.075094 0.006653
0.558156 0.085623 0.006653
0.613456 0.096521 0.006653
0.665623 0.107419 0.006653
0.712294 0.118916 0.006653
0.748224 0.131163 0.006653
0.777795 0.145109 0.006653
0.804804 0.160306 0.006653
0.822798 0.176120 0.006653
0.825734 0.191030 0.006653
0.006800 0.010393 0.006828
0.007667 0.010572 0.006828
0.008530 0.010511 0.006791
0.010669 0.010634 0.006755
0.014538 0.010900 0.006720
0.019659 0.011345 0.006653
0.025062 0.011943 0.006653
0.030480 0.012735 0.006653
0.035911 0.013648 0.006653
0.043741 0.014741 0.006653
0.053771 0.015753 0.006653
0.068325 0.017331 0.006653
0.087541 0.019286 0.006653
0.108704 0.021225 0.006653
0.131816 0.023374 0.006653
0.158163 0.025776 0.006653
0.187904 0.028741 0.006653
0.220602 0.032608 0.006653
0.256589 0.037431 0.006653
0.295498 0.043362 0.006653
0.337319 0.050372 0.006653
0.381822 0.058526 0.006653
0.435802 0.067511 0.006653
0.498641 0.077272 0.006653
0.560938 0.087838 0.006653
0.615812 0.098572 0.006653
0.667915 0.109559 0.006653
0.714044 0.120994 0.006653
0.749501 0.133403 0.006653
0.778845 0.147397 0.006653
0.805786 0.162746 0.006653
0.823472 0.178566 0.006653
0.826413 0.193468 0.006653
0.006930 0.012036 0.007073
0.008458 0.013295 0.007211
0.010296 0.012844 0.007118
0.012735 0.012527 0.006987
0.016582 0.012736 0.006866
0.021818 0.013065 0.006686
0.026852 0.013649 0.006653
0.031835 0.014372 0.006653
0.037237 0.015244 0.006653
0.045164 0.016272 0.006653
0.055576 0.017332 0.006653
0.069941 0.018660 0.006653
0.089285 0.020570 0.006653
0.110563 0.022473 0.006653
0.133946 0.024466 0.006653
0.160533 0.026936 0.006653
0.190344 0.030186 0.006653
0.223221 0.034351 0.006653
0.259355 0.039465 0.006653
0.298262 0.045514 0.006653
0.340066 0.052757 0.006653
0.384741 0.060939 0.006653
0.439241 0.070058 0.006653
0.502203 0.079891 0.006653
0.564087 0.090313 0.006653
0.618572 0.100987 0.006653
0.670256 0.111824 0.006653
0.715982 0.123299 0.006653
0.750878 0.135903 0.006653
0.780073 0.149944 0.006653
0.806864 0.165446 0.006653
0.824275 0.181397 0.006653
0.827240 0.196416 0.006653
0.007155 0.016013 0.007521
0.009226 0.018401 0.007816
0.012329 0.018915 0.007755
0.015616 0.018003 0.007521
0.019111 0.017199 0.007211
0.023672 0.016932 0.006905
0.028769 0.016799 0.006653
0.033319 0.017199 0.006653
0.039004 0.017869 0.006653
0.047313 0.018531 0.006653
0.058180 0.019530 0.006653
0.072046 0.020571 0.006653
0.091803 0.022271 0.006653
0.113136 0.024070 0.006653
0.136782 0.026193 0.006653
0.163592 0.028979 0.006653
0.193724 0.032479 0.006653
0.226744 0.037004 0.006653
0.262988 0.042301 0.006653
0.302094 0.048795 0.006653
0.343943 0.056119 0.006653
0.388850 0.064473 0.006653
0.444348 0.073531 0.006653
0.507321 0.083383 0.006653
0.568474 0.093736 0.006653
0.622472 0.104254 0.006653
0.673619 0.115080 0.006653
0.718672 0.126721 0.006653
0.752817 0.139422 0.006653
0.781837 0.153776 0.006653
0.808388 0.169433 0.006653
0.825447 0.185511 0.006653
0.828320 0.200639 0.006653
0.007464 0.021756 0.008289
0.010020 0.024269 0.008672
0.013340 0.024468 0.008592
0.018000 0.024767 0.008514
0.021460 0.023178 0.007879
0.025405 0.022067 0.007310
0.030156 0.021335 0.006828
0.034956 0.021012 0.006653
0.041279 0.021228 0.006653
0.050258 0.021547 0.006653
0.061775 0.022170 0.006653
0.075616 0.022978 0.006653
0.095069 0.024468 0.006653
0.116423 0.026404 0.006653
0.140603 0.028862 0.006653
0.167752 0.031958 0.006653
0.198167 0.036015 0.006653
0.231551 0.040800 0.006653
0.267850 0.046447 0.006653
0.307215 0.053238 0.006653
0.349274 0.060780 0.006653
0.394673 0.069266 0.006653
0.450999 0.078510 0.006653
0.513826 0.088281 0.006653
0.574293 0.098440 0.006653
0.627560 0.108681 0.006653
0.678298 0.119533 0.006653
0.722256 0.131291 0.006653
0.755407 0.144478 0.006653
0.784149 0.158899 0.006653
0.810395 0.174837 0.006653
0.826957 0.190906 0.006653
0.829773 0.206129 0.006653
0.007773 0.027157 0.009186
0.010480 0.030811 0.009762
0.013841 0.030937 0.009661
0.018372 0.031063 0.009466
0.023846 0.031317 0.009277
0.027356 0.028396 0.008146
0.031676 0.026723 0.007310
0.037236 0.025678 0.006686
0.044640 0.025270 0.006653
0.054519 0.025270 0.006653
0.066875 0.025678 0.006653
0.080963 0.026300 0.006653
0.098737 0.027599 0.006653
0.120564 0.029943 0.006653
0.145260 0.032744 0.006653
0.172998 0.036438 0.006653
0.203659 0.040801 0.006653
0.237362 0.045982 0.006653
0.273920 0.052123 0.006653
0.313368 0.059012 0.006653
0.355582 0.066876 0.006653
0.402059 0.075411 0.006653
0.459698 0.084584 0.006653
0.522239 0.094300 0.006653
0.581292 0.104256 0.006653
0.634025 0.114458 0.006653
0.683870 0.125375 0.006653
0.726630 0.137411 0.006653
0.758690 0.150840 0.006653
0.787015 0.165705 0.006653
0.812933 0.181785 0.006653
0.828813 0.198083 0.006653
0.831543 0.213380 0.006653
0.008004 0.034083 0.010073
0.010951 0.040356 0.011035
0.014338 0.040504 0.010926
0.018835 0.040504 0.010709
0.024368 0.040802 0.010388
0.030317 0.040504 0.009968
0.034009 0.036157 0.008289
0.040002 0.033543 0.007211
0.049544 0.031831 0.006653
0.060359 0.031191 0.006653
0.073180 0.031064 0.006653
0.087540 0.031446 0.006653
0.103068 0.032351 0.006653
0.125412 0.035042 0.006653
0.150745 0.038446 0.006653
0.179040 0.042455 0.006653
0.210314 0.047385 0.006653
0.244286 0.052920 0.006653
0.281295 0.059335 0.006653
0.320998 0.066558 0.006653
0.363403 0.074474 0.006653
0.411198 0.083085 0.006653
0.469777 0.092181 0.006653
0.532192 0.101652 0.006653
0.589511 0.111199 0.006653
0.641553 0.121484 0.006653
0.690569 0.132660 0.006653
0.731661 0.145115 0.006653
0.762491 0.158901 0.006653
0.790432 0.173938 0.006653
0.815946 0.190394 0.006653
0.831081 0.206768 0.006653
0.833740 0.222368 0.006653
0.008190 0.043826 0.011145
0.011239 0.052284 0.012272
0.014734 0.053081 0.012272
0.019293 0.053241 0.012043
0.024801 0.053560 0.011702
0.031278 0.053880 0.011366
0.037943 0.052443 0.010495
0.044639 0.046918 0.008289
0.055120 0.043215 0.006987
0.067679 0.041102 0.006653
0.080962 0.039912 0.006653
0.095530 0.039765 0.006653
0.110562 0.040208 0.006653
0.130963 0.042456 0.006653
0.156906 0.046139 0.006653
0.185865 0.050694 0.006653
0.217711 0.055802 0.006653
0.252296 0.061748 0.006653
0.289820 0.068473 0.006653
0.329833 0.075725 0.006653
0.372475 0.083687 0.006653
0.422018 0.092182 0.006653
0.481685 0.100992 0.006653
0.543512 0.110068 0.006653
0.598717 0.119658 0.006653
0.650361 0.130054 0.006653
0.697941 0.141696 0.006653
0.737098 0.154675 0.006653
0.766974 0.168922 0.006653
0.794417 0.184358 0.006653
0.819420 0.201026 0.006653
0.833698 0.217566 0.006653
0.836259 0.233179 0.006653
0.008255 0.055963 0.012388
0.011239 0.064799 0.013449
0.015029 0.068633 0.013808
0.019566 0.068792 0.013449
0.025146 0.068951 0.013210
0.031675 0.069110 0.012737
0.040229 0.069746 0.012272
0.051849 0.066879 0.010709
0.062405 0.060463 0.008146
0.076588 0.055963 0.006653
0.090231 0.053401 0.006653
0.104532 0.051966 0.006653
0.119706 0.051489 0.006653
0.136923 0.052125 0.006653
0.163869 0.056284 0.006653
0.193588 0.061106 0.006653
0.226092 0.066559 0.006653
0.261360 0.072592 0.006653
0.299221 0.079283 0.006653
0.339608 0.086668 0.006653
0.382827 0.094444 0.006653
0.434783 0.102573 0.006653
0.495306 0.110950 0.006653
0.555967 0.120026 0.006653
0.609472 0.129807 0.006653
0.660239 0.140813 0.006653
0.706258 0.152886 0.006653
0.743028 0.166223 0.006653
0.772086 0.180888 0.006653
0.798922 0.196678 0.006653
0.823269 0.213637 0.006653
0.836679 0.230297 0.006653
0.839096 0.246130 0.006653
0.008255 0.070540 0.013569
0.011047 0.079131 0.014524
0.015029 0.085929 0.015233
0.019747 0.086077 0.014998
0.025404 0.086225 0.014642
0.032070 0.086521 0.014167
0.041159 0.086816 0.013689
0.056946 0.087406 0.013091
0.072043 0.083238 0.010709
0.085624 0.076504 0.007694
0.100691 0.071489 0.006653
0.114849 0.068475 0.006653
0.130251 0.066880 0.006653
0.147231 0.066241 0.006653
0.171343 0.068793 0.006653
0.201920 0.073694 0.006653
0.235171 0.079284 0.006653
0.271075 0.085334 0.006653
0.309704 0.091898 0.006653
0.350628 0.098986 0.006653
0.394790 0.106296 0.006653
0.449334 0.114087 0.006653
0.510222 0.122455 0.006653
0.569358 0.131792 0.006653
0.621148 0.142204 0.006653
0.670960 0.153654 0.006653
0.715070 0.166352 0.006653
0.749209 0.180117 0.006653
0.777577 0.195014 0.006653
0.803840 0.211225 0.006653
0.827585 0.228415 0.006653
0.839916 0.245264 0.006653
0.842227 0.261263 0.006653
0.008127 0.086817 0.014642
0.010761 0.094725 0.015586
0.014832 0.103486 0.016519
0.019657 0.104003 0.016287
0.025490 0.104261 0.015937
0.032305 0.104518 0.015469
0.041755 0.104774 0.014998
0.058332 0.105157 0.014286
0.080152 0.105792 0.013569
0.096450 0.100596 0.010282
0.111132 0.093884 0.007118
0.126408 0.089016 0.006653
0.142437 0.085781 0.006653
0.159834 0.083990 0.006653
0.179313 0.083540 0.006653
0.210843 0.088432 0.006653
0.245051 0.093743 0.006653
0.281783 0.099526 0.006653
0.320763 0.105666 0.006653
0.362512 0.112334 0.006653
0.408741 0.119539 0.006653
0.465317 0.127465 0.006653
0.526322 0.136287 0.006653
0.582925 0.146134 0.006653
0.633944 0.157110 0.006653
0.682407 0.169053 0.006653
0.724246 0.182176 0.006653
0.755934 0.196424 0.006653
0.783701 0.211734 0.006653
0.809169 0.228039 0.006653
0.832272 0.245637 0.006653
0.843383 0.262362 0.006653
0.845586 0.278467 0.006653
0.007829 0.103746 0.015703
0.010203 0.110701 0.016519
0.014140 0.118804 0.017441
0.019293 0.122578 0.017556
0.025318 0.122821 0.017212
0.032305 0.122943 0.016751
0.042119 0.123186 0.016171
0.059419 0.123672 0.015586
0.081928 0.124281 0.014761
0.106412 0.125014 0.013928
0.122416 0.118435 0.009371
0.139186 0.111832 0.006653
0.155926 0.107178 0.006653
0.173822 0.104262 0.006653
0.193587 0.102576 0.006653
0.220206 0.104262 0.006653
0.255327 0.109191 0.006653
0.292964 0.114713 0.006653
0.332719 0.120760 0.006653
0.375002 0.127466 0.006653
0.424405 0.135036 0.006653
0.482817 0.143471 0.006653
0.542960 0.152889 0.006653
0.597061 0.163270 0.006653
0.647452 0.174715 0.006653
0.694295 0.187189 0.006653
0.733401 0.200646 0.006653
0.762997 0.215162 0.006653
0.790058 0.230802 0.006653
0.814917 0.247495 0.006653
0.837237 0.265167 0.006653
0.847163 0.282065 0.006653
0.849184 0.298206 0.006653
0.007464 0.121368 0.016751
0.009397 0.127959 0.017327
0.013037 0.135913 0.018125
0.018650 0.143726 0.018690
0.024801 0.143852 0.018352
0.031991 0.144106 0.017784
0.042119 0.144486 0.017212
0.059887 0.144867 0.016519
0.083378 0.145501 0.015703
0.108558 0.146263 0.014879
0.134793 0.147153 0.013808
0.152005 0.138423 0.008146
0.170375 0.131547 0.006653
0.189258 0.126607 0.006653
0.209516 0.123673 0.006653
0.231420 0.122095 0.006653
0.266230 0.126361 0.006653
0.304716 0.132044 0.006653
0.345419 0.138423 0.006653
0.388733 0.145628 0.006653
0.441408 0.153657 0.006653
0.501098 0.162757 0.006653
0.560012 0.172658 0.006653
0.612017 0.183463 0.006653
0.661485 0.195401 0.006653
0.706199 0.208175 0.006653
0.742190 0.221995 0.006653
0.770506 0.236809 0.006653
0.796850 0.252680 0.006653
0.820822 0.269540 0.006653
0.842416 0.287318 0.006653
0.851076 0.304071 0.006653
0.852987 0.320409 0.006653
0.006930 0.141197 0.017556
0.008458 0.148044 0.018125
0.011630 0.156217 0.018690
0.017531 0.168156 0.019585
0.023933 0.168670 0.019251
0.031437 0.168928 0.018690
0.041515 0.169185 0.018125
0.059887 0.169571 0.017441
0.084021 0.170214 0.016519
0.109987 0.170986 0.015586
0.137345 0.172015 0.014524
0.166225 0.172144 0.012855
0.185590 0.162373 0.006987
0.205524 0.154681 0.006653
0.226611 0.149700 0.006653
0.249378 0.146518 0.006653
0.277244 0.146772 0.006653
0.316779 0.152891 0.006653
0.358381 0.159677 0.006653
0.403990 0.167384 0.006653
0.459568 0.175875 0.006653
0.520003 0.185264 0.006653
0.577034 0.195658 0.006653
0.627558 0.206902 0.006653
0.675694 0.218964 0.006653
0.718148 0.232057 0.006653
0.750695 0.246135 0.006653
0.778350 0.261144 0.006653
0.803839 0.277268 0.006653
0.827021 0.294198 0.006653
0.847852 0.312105 0.006653
0.855146 0.328752 0.006653
0.856912 0.344975 0.006653
0.006683 0.164172 0.018915
0.007465 0.171630 0.018578
0.010021 0.179736 0.019139
0.015616 0.191557 0.019806
0.022616 0.196683 0.019917
0.030478 0.196940 0.019362
0.040574 0.197324 0.018690
0.059108 0.197836 0.018012
0.084181 0.198475 0.017097
0.110988 0.199243 0.016171
0.139468 0.200266 0.014998
0.170650 0.201544 0.013808
0.200846 0.200138 0.010817
0.222824 0.190017 0.006653
0.245049 0.182565 0.006653
0.268841 0.177549 0.006653
0.294652 0.174718 0.006653
0.329253 0.177549 0.006653
0.371923 0.184751 0.006653
0.420763 0.192711 0.006653
0.478907 0.201544 0.006653
0.539189 0.211357 0.006653
0.593297 0.221871 0.006653
0.643192 0.233311 0.006653
0.689991 0.245765 0.006653
0.729554 0.259066 0.006653
0.759413 0.273292 0.006653
0.786221 0.288391 0.006653
0.810989 0.304658 0.006653
0.833285 0.321558 0.006653
0.853414 0.339602 0.006653
0.859257 0.355952 0.006653
0.860883 0.372203 0.006653
0.006683 0.189890 0.021338
0.006684 0.198348 0.019027
0.008192 0.206394 0.019362
0.013240 0.217953 0.019917
0.020832 0.228044 0.020248
0.029015 0.228421 0.019696
0.038894 0.228672 0.019027
0.057714 0.229174 0.018239
0.083539 0.229802 0.017441
0.111417 0.230680 0.016403
0.141023 0.231809 0.015351
0.173407 0.233186 0.014047
0.208319 0.235063 0.012737
0.240058 0.232185 0.008672
0.264358 0.222250 0.006653
0.289453 0.215039 0.006653
0.316425 0.210595 0.006653
0.345191 0.208305 0.006653
0.385759 0.213517 0.006653
0.438601 0.221619 0.006653
0.498515 0.230680 0.006653
0.557842 0.240675 0.006653
0.609896 0.251451 0.006653
0.659059 0.263099 0.006653
0.703869 0.275585 0.006653
0.740037 0.289105 0.006653
0.768224 0.303373 0.006653
0.794303 0.318573 0.006653
0.818185 0.334760 0.006653
0.839699 0.351757 0.006653
0.858999 0.369608 0.006653
0.863400 0.385810 0.006653
0.864887 0.403210 0.006653
0.006683 0.218713 0.023973
0.006684 0.227039 0.021769
0.006865 0.236188 0.019362
0.010389 0.247500 0.019806
0.018373 0.262612 0.020358
0.027020 0.262978 0.019806
0.036941 0.263222 0.019139
0.055422 0.263832 0.018352
0.082251 0.264563 0.017556
0.111274 0.265658 0.016519
0.142153 0.266752 0.015469
0.176020 0.268452 0.014286
0.212297 0.270392 0.013091
0.250899 0.272932 0.011815
0.283979 0.268452 0.007118
0.310885 0.259190 0.006653
0.339376 0.252807 0.006653
0.369496 0.248983 0.006653
0.403505 0.247500 0.006653
0.457393 0.254406 0.006653
0.518466 0.263466 0.006653
0.575998 0.273536 0.006653
0.626577 0.284341 0.006653
0.674865 0.296090 0.006653
0.717148 0.308624 0.006653
0.749716 0.322133 0.006653
0.777077 0.336454 0.006653
0.802393 0.351536 0.006653
0.825378 0.367656 0.006653
0.846100 0.384607 0.006653
0.864554 0.403441 0.006653
0.867514 0.421265 0.006653
0.868880 0.440487 0.006653
0.006683 0.251082 0.026772
0.006684 0.259069 0.024687
0.006685 0.268332 0.021769
0.007889 0.280514 0.019585
0.015129 0.295029 0.020027
0.024629 0.300562 0.019806
0.034791 0.301148 0.019251
0.052730 0.301852 0.018465
0.080313 0.302672 0.017670
0.110845 0.303725 0.016751
0.143000 0.305245 0.015703
0.178215 0.306995 0.014642
0.216259 0.309206 0.013569
0.256332 0.311761 0.012272
0.298377 0.314885 0.011145
0.332716 0.309439 0.006653
0.362843 0.301031 0.006653
0.395494 0.295737 0.006653
0.435162 0.292901 0.006653
0.480799 0.292783 0.006653
0.537845 0.299622 0.006653
0.592945 0.309671 0.006653
0.643191 0.320529 0.006653
0.689926 0.332161 0.006653
0.729460 0.344644 0.006653
0.759274 0.358045 0.006653
0.785896 0.372314 0.006653
0.810392 0.387571 0.006653
0.832519 0.404704 0.006653
0.852432 0.423632 0.006653
0.870091 0.444469 0.006653
0.871557 0.463524 0.006653
0.872762 0.483516 0.006653
0.006683 0.287086 0.029889
0.006684 0.294912 0.027832
0.006685 0.303843 0.025091
0.006686 0.316618 0.020248
0.011534 0.330801 0.019917
0.021907 0.341625 0.020027
0.032775 0.342297 0.019473
0.049970 0.343080 0.018915
0.078371 0.344086 0.018125
0.110130 0.345314 0.017212
0.143706 0.346875 0.016287
0.180542 0.348765 0.015351
0.220072 0.351206 0.014286
0.261732 0.353860 0.013210
0.305427 0.357276 0.012157
0.350963 0.361335 0.011145
0.386781 0.354964 0.006653
0.425031 0.347876 0.006653
0.469391 0.343863 0.006653
0.517042 0.342633 0.006653
0.563982 0.343751 0.006653
0.609640 0.348988 0.006653
0.659501 0.359692 0.006653
0.704454 0.371234 0.006653
0.740592 0.383736 0.006653
0.768681 0.397631 0.006653
0.794581 0.413164 0.006653
0.818301 0.430533 0.006653
0.839601 0.449430 0.006653
0.858691 0.469739 0.006653
0.874360 0.491434 0.006653
0.875433 0.511075 0.006653
0.876497 0.531570 0.006653
0.006683 0.326936 0.033270
0.006684 0.334312 0.031249
0.006685 0.342858 0.028683
0.006686 0.355075 0.024178
0.008461 0.370045 0.020248
0.019020 0.385923 0.020686
0.030559 0.386582 0.020138
0.046901 0.387572 0.019473
0.075938 0.388787 0.018915
0.109415 0.390339 0.018239
0.144411 0.392010 0.017441
0.182864 0.394361 0.016519
0.224000 0.396953 0.015703
0.267348 0.400357 0.014761
0.312656 0.404132 0.013928
0.359720 0.408746 0.013091
0.411070 0.414099 0.012388
0.456496 0.406434 0.006653
0.504154 0.400699 0.006653
0.551738 0.397971 0.006653
0.595399 0.398312 0.006653
0.637846 0.401156 0.006653
0.679380 0.406780 0.006653
0.717831 0.415738 0.006653
0.750477 0.429937 0.006653
0.777884 0.445558 0.006653
0.803103 0.462551 0.006653
0.825971 0.481080 0.006653
0.846466 0.500669 0.006653
0.864764 0.521661 0.006653
0.879357 0.546920 0.006653
0.881242 0.569801 0.006653
0.883130 0.593391 0.006653
0.006683 0.370587 0.036870
0.006684 0.377590 0.034887
0.006685 0.385705 0.032400
0.006686 0.397972 0.028212
0.006743 0.415153 0.021230
0.015812 0.433045 0.021554
0.028439 0.439648 0.021338
0.044122 0.440852 0.020904
0.073990 0.442299 0.020358
0.108986 0.444230 0.019806
0.145538 0.446647 0.019251
0.185453 0.449432 0.018690
0.228301 0.452584 0.018012
0.273421 0.456591 0.017441
0.320291 0.461213 0.016866
0.368941 0.466694 0.016403
0.423898 0.472911 0.016054
0.487207 0.479008 0.014642
0.537058 0.471692 0.006653
0.582831 0.467303 0.006653
0.625184 0.466450 0.006653
0.666982 0.468888 0.006653
0.705966 0.474496 0.006653
0.738868 0.482910 0.006653
0.765411 0.494233 0.006653
0.790743 0.508541 0.006653
0.814481 0.525253 0.006653
0.836495 0.544575 0.006653
0.856710 0.566264 0.006653
0.874645 0.589652 0.006653
0.886071 0.613502 0.006653
0.887553 0.634882 0.006653
0.888996 0.656442 0.006653
0.006683 0.421152 0.041208
0.006684 0.428985 0.038900
0.006685 0.437965 0.036460
0.006686 0.451008 0.032400
0.006687 0.469133 0.025790
0.012838 0.488637 0.023457
0.026514 0.501884 0.023664
0.042242 0.503338 0.023353
0.072692 0.505155 0.023040
0.109129 0.507333 0.022620
0.147228 0.509991 0.022303
0.188849 0.513128 0.021983
0.233229 0.516981 0.021662
0.280065 0.521303 0.021446
0.328671 0.526449 0.021230
0.378941 0.532287 0.021230
0.437706 0.538922 0.021338
0.504640 0.546687 0.021769
0.565488 0.551945 0.018915
0.610573 0.547624 0.006653
0.653160 0.545515 0.006653
0.693602 0.547039 0.006653
0.728759 0.551712 0.006653
0.756456 0.559599 0.006653
0.781862 0.570258 0.006653
0.805962 0.583775 0.006653
0.828293 0.599606 0.006653
0.848821 0.617280 0.006653
0.867453 0.637079 0.006653
0.883384 0.657756 0.006653
0.891558 0.677992 0.006653
0.892759 0.696294 0.006653
0.893892 0.713705 0.006653
0.006683 0.483765 0.046502
0.006684 0.491559 0.043995
0.006685 0.500672 0.041118
0.006686 0.513852 0.036870
0.006687 0.531336 0.030619
0.010955 0.550781 0.026772
0.025320 0.569462 0.027256
0.041397 0.571169 0.027160
0.073016 0.573211 0.027063
0.110845 0.575473 0.026966
0.150320 0.578290 0.026869
0.193584 0.581654 0.026772
0.239543 0.585556 0.026869
0.287752 0.589985 0.026966
0.338001 0.595254 0.027256
0.390114 0.601122 0.027736
0.453168 0.607779 0.028401
0.521412 0.615396 0.029336
0.583730 0.623713 0.030528
0.634340 0.628422 0.027160
0.677474 0.626892 0.013091
0.716403 0.627811 0.006653
0.746786 0.631565 0.006653
0.772593 0.638074 0.006653
0.797038 0.647094 0.006653
0.819854 0.658505 0.006653
0.840822 0.671741 0.006653
0.859974 0.686621 0.006653
0.876906 0.702444 0.006653
0.890355 0.718593 0.006653
0.896123 0.734433 0.006653
0.896847 0.749420 0.006653
0.897013 0.765365 0.016866
0.006683 0.554274 0.053050
0.006684 0.561791 0.050289
0.006685 0.570374 0.046992
0.006686 0.582438 0.042216
0.006687 0.598415 0.035803
0.010484 0.615817 0.031606
0.025234 0.633279 0.032313
0.042487 0.639364 0.032663
0.075775 0.641238 0.032750
0.114561 0.643593 0.032837
0.155644 0.646513 0.033097
0.200310 0.649601 0.033443
0.247850 0.653326 0.033871
0.297536 0.657665 0.034382
0.349155 0.662404 0.035139
0.403744 0.667791 0.035968
0.470280 0.673961 0.037201
0.538962 0.680676 0.038640
0.599146 0.688127 0.040666
0.653159 0.695976 0.043053
0.697813 0.699868 0.039335
0.732910 0.701044 0.029981
0.760680 0.703990 0.019806
0.786599 0.708844 0.009661
0.810663 0.715512 0.006653
0.832267 0.724051 0.006653
0.852013 0.734229 0.006653
0.869822 0.745719 0.006653
0.884123 0.758965 0.013808
0.894451 0.773992 0.033529
0.897081 0.788238 0.052022
0.896982 0.800795 0.070332
0.896901 0.812405 0.089048
0.006683 0.627915 0.060805
0.006684 0.634385 0.057743
0.006685 0.641829 0.054189
0.006686 0.651900 0.048879
0.006687 0.665339 0.041390
0.012130 0.678864 0.038468
0.027189 0.692660 0.039423
0.046495 0.701825 0.040219
0.082251 0.703683 0.040666
0.121844 0.705675 0.041118
0.164143 0.708020 0.041664
0.210176 0.710778 0.042494
0.258847 0.713925 0.043522
0.309818 0.717523 0.044662
0.362284 0.721511 0.046209
0.420634 0.726015 0.048080
0.489831 0.731286 0.050492
0.557838 0.736944 0.053257
0.615721 0.743156 0.056798
0.668762 0.749938 0.061017
0.714687 0.757350 0.066108
0.746600 0.760999 0.062289
0.772112 0.763740 0.054500
0.796406 0.767991 0.048979
0.818950 0.773763 0.046209
0.839422 0.781007 0.046796
0.857744 0.789539 0.052022
0.873569 0.799043 0.063668
0.886284 0.809378 0.082603
0.895526 0.820165 0.113154
0.897001 0.828735 0.140945
0.896951 0.835676 0.166000
0.896916 0.841549 0.192083
0.006683 0.697416 0.069701
0.006684 0.702292 0.066425
0.006685 0.707871 0.062607
0.006686 0.715586 0.056798
0.006687 0.725456 0.048678
0.017155 0.734367 0.049783
0.031755 0.744803 0.051204
0.056029 0.755410 0.052947
0.093982 0.757039 0.053774
0.133799 0.758843 0.054812
0.177254 0.761000 0.056064
0.224130 0.763438 0.057533
0.273667 0.766267 0.059325
0.325421 0.769467 0.061547
0.378830 0.773017 0.064093
0.441659 0.777060 0.067272
0.512142 0.781391 0.070857
0.577685 0.786135 0.075128
0.633698 0.791338 0.079918
0.684920 0.796873 0.085440
0.727531 0.802706 0.092177
0.758648 0.808820 0.100788
0.783426 0.811868 0.099283
0.806114 0.815080 0.097570
0.826994 0.819241 0.099628
0.845857 0.824235 0.106859
0.862750 0.829736 0.121429
0.877140 0.835305 0.145371
0.888435 0.840845 0.180911
0.896579 0.847035 0.228045
0.897041 0.852054 0.253180
0.897017 0.856915 0.276545
0.897013 0.861828 0.301429
0.006683 0.757040 0.079415
0.006684 0.760939 0.076158
0.006685 0.765249 0.072114
0.006686 0.771397 0.066108
0.013241 0.777117 0.065790
0.025918 0.783783 0.067484
0.041396 0.791491 0.069595
0.073664 0.799949 0.072010
0.111988 0.802891 0.073678
0.152143 0.804353 0.075231
0.196548 0.806060 0.077285
0.243897 0.807997 0.079415
0.293925 0.810148 0.081912
0.345982 0.812531 0.084850
0.401090 0.815240 0.088440
0.467988 0.818075 0.092712
0.537954 0.821222 0.098024
0.598884 0.824440 0.104568
0.653384 0.827867 0.112528
0.701795 0.831346 0.122205
0.739833 0.834828 0.133614
0.768547 0.838193 0.147253
0.794410 0.841661 0.163032
0.815653 0.843692 0.168156
0.834836 0.846143 0.177565
0.852307 0.849265 0.193933
